24x24/apps/dragon-ball-xenoverse.svg

<svg height="24" width="24" xmlns="http://www.w3.org/2000/svg"><path d="m2.01 12.207a10 10 0 0 0 -.01.293 10 10 0 0 0 10 10 10 10 0 0 0 10-10 10 10 0 0 0 -.01-.207 10 10 0 0 1 -9.99 9.707 10 10 0 0 1 -9.99-9.793z" opacity=".2"/><path d="m12 2a10 10 0 0 0 -10 10 10 10 0 0 0 .01.207 10 10 0 0 1 9.99-9.707 10 10 0 0 1 9.99 9.793 10 10 0 0 0 .01-.293 10 10 0 0 0 -10-10z" fill="#f4f4f7" opacity=".2"/><path d="m12 2a10 10 0 0 0 -10 10 10 10 0 0 0 10 10 10 10 0 0 0 10-10 10 10 0 0 0 -10-10z" fill="#f4b400"/><path d="m8.071 12.147-.882-1.789-1.975-.287 1.429-1.391-.337-1.966 1.765.928 1.766-.928-.337 1.965 1.429 1.392-1.975.287zm6.786-1.715-.883-1.79-1.974-.285 1.429-1.393-.338-1.966 1.766.928 1.766-.928-.337 1.966 1.428 1.393-1.974.287zm-6.071 8.858-.883-1.789-1.974-.287 1.428-1.392-.337-1.967 1.766.929 1.766-.929-.338 1.967 1.429 1.392-1.974.287zm7.857-2.143-.883-1.789-1.974-.287 1.428-1.392-.337-1.966 1.766.928 1.766-.928-.338 1.966 1.429 1.391-1.974.287z" opacity=".3"/><g fill="#f4f4f7"><path d="m8.071 11.79-.881-1.79-1.975-.286 1.429-1.392-.337-1.967 1.765.929 1.766-.929-.338 1.967 1.429 1.392-1.975.287z"/><path d="m40 26.608-2.472-5.008-5.528-.804 4-3.899-.944-5.505 4.944 2.598 4.944-2.6-.944 5.508 4 3.9-5.528.802z" transform="matrix(.35714 0 0 .35714 .571 .571)"/><path d="m8.786 18.933-.883-1.79-1.974-.286 1.428-1.393-.337-1.966 1.766.928 1.766-.928-.338 1.966 1.429 1.393-1.974.287z"/><path d="m45 45.412-2.472-5.01-5.528-.802 4-3.899-.944-5.505 4.944 2.6 4.944-2.6-.944 5.504 4 3.9-5.528.803z" transform="matrix(.35714 0 0 .35714 .571 .571)"/><path d="m2.01 12.293a10 10 0 0 1 -.01-.293 10 10 0 0 1 10-10 10 10 0 0 1 10 10 10 10 0 0 1 -.01.207 10 10 0 0 0 -9.99-9.707 10 10 0 0 0 -9.99 9.793z" opacity=".2"/></g><g fill="none" opacity=".3" stroke="#000" stroke-linecap="round" stroke-width="4.554676" transform="matrix(.3631 0 0 .39369 1.212 -1.13)"><path d="m57.721 39.516-5.693 18.218-5.694-18.218" stroke-linejoin="round"/><path d="m40.64 39.5-11.387 18.219m0-18.219 11.387 18.219"/></g><path d="m57.721 39.516-5.693 18.218-5.694-18.218" fill="none" stroke="#c2352a" stroke-linecap="round" stroke-linejoin="round" stroke-width="4.554676" transform="matrix(.3631 0 0 .39369 1.212 -1.442)"/><path d="m40.64 39.5-11.387 18.219m0-18.219 11.387 18.219" fill="none" stroke="#c2352a" stroke-linecap="round" stroke-width="4.554676" transform="matrix(.3631 0 0 .39369 1.212 -1.442)"/></svg>

<svg xmlns="http://www.w3.org/2000/svg" width="24" height="24"><path opacity=".2" d="M2.01 12.207A10 10 0 0 0 2 12.5a10 10 0 0 0 10 10 10 10 0 0 0 10-10 10 10 0 0 0-.01-.207A10 10 0 0 1 12 22a10 10 0 0 1-9.99-9.793z"/><path fill="#f4f4f7" opacity=".2" d="M12 2A10 10 0 0 0 2 12a10 10 0 0 0 .01.207A10 10 0 0 1 12 2.5a10 10 0 0 1 9.99 9.793A10 10 0 0 0 22 12 10 10 0 0 0 12 2z"/><path style="fill:#f4b400" d="M12 2A10 10 0 0 0 2 12a10 10 0 0 0 10 10 10 10 0 0 0 10-10A10 10 0 0 0 12 2z"/><g style="opacity:.3"><path d="m8.071 12.147-.882-1.789-1.975-.287L6.643 8.68l-.337-1.966 1.765.928 1.766-.928L9.5 8.679l1.429 1.392-1.975.287zM14.857 10.432l-.883-1.79L12 8.357l1.429-1.393-.338-1.966 1.766.928 1.766-.928-.337 1.966 1.428 1.393-1.974.287zM8.786 19.29l-.883-1.789-1.974-.287 1.428-1.392-.337-1.967 1.766.929 1.766-.929-.338 1.967 1.429 1.392-1.974.287zM16.643 17.147l-.883-1.789-1.974-.287 1.428-1.392-.337-1.966 1.766.928 1.766-.928-.338 1.966L19.5 15.07l-1.974.287z"/></g><path style="fill:#f4f4f7" d="M8.071 11.79 7.19 10l-1.975-.286 1.429-1.392-.337-1.967 1.765.929 1.766-.929L9.5 8.322l1.429 1.392-1.975.287z"/><path style="fill:#f4f4f7" d="M40 26.608 37.528 21.6 32 20.796l4-3.899-.944-5.505L40 13.99l4.944-2.6L44 16.898l4 3.9-5.528.802z" transform="matrix(.35714 0 0 .35714 .571 .571)"/><path style="fill:#f4f4f7" d="m8.786 18.933-.883-1.79-1.974-.286 1.428-1.393-.337-1.966 1.766.928 1.766-.928-.338 1.966 1.429 1.393-1.974.287z"/><path style="fill:#f4f4f7" d="m45 45.412-2.472-5.01L37 39.6l4-3.899-.944-5.505 4.944 2.6 4.944-2.6L49 35.7l4 3.9-5.528.803z" transform="matrix(.35714 0 0 .35714 .571 .571)"/><path style="opacity:.2;fill:#f4f4f7" d="M2.01 12.293A10 10 0 0 1 2 12 10 10 0 0 1 12 2a10 10 0 0 1 10 10 10 10 0 0 1-.01.207A10 10 0 0 0 12 2.5a10 10 0 0 0-9.99 9.793z"/><g style="opacity:.3;stroke:#000"><path style="stroke-linejoin:round;stroke:#000;stroke-linecap:round;stroke-width:4.55467606;fill:none" d="m57.721 39.516-5.693 18.218-5.694-18.218" transform="matrix(.3631 0 0 .39369 1.212 -1.13)"/><path style="stroke:#000;stroke-width:4.55467606;stroke-linecap:round;fill:none" d="M40.64 39.5 29.253 57.719m0-18.219L40.64 57.719" transform="matrix(.3631 0 0 .39369 1.212 -1.13)"/></g><path style="stroke-linejoin:round;stroke:#c2352a;stroke-linecap:round;stroke-width:4.55467606;fill:none" d="m57.721 39.516-5.693 18.218-5.694-18.218" transform="matrix(.3631 0 0 .39369 1.212 -1.442)"/><path style="stroke:#c2352a;stroke-width:4.55467606;stroke-linecap:round;fill:none" d="M40.64 39.5 29.253 57.719m0-18.219L40.64 57.719" transform="matrix(.3631 0 0 .39369 1.212 -1.442)"/></svg>
